src/epub/images/titlepage.svg

<?xml version="1.0" encoding="utf-8"?>
<svg xmlns="http://www.w3.org/2000/svg" xmlns:svg="http://www.w3.org/2000/svg" version="1.1" viewBox="0 0 1400 340">
	<title>The titlepage for the Standard Ebooks edition of Short Fiction, by Arthur Machen</title>
	<g aria-label="SHORT FICTION">
		<path d="m 326.86549,51.403507 c -12.44444,0 -25.16959,9.169591 -25.16959,23.578948 0,8.046784 5.4269,15.251462 14.69006,19.836258 9.16959,4.584795 17.40351,7.111107 17.40351,12.725147 0,7.20468 -7.29825,7.57895 -11.13451,7.57895 -8.60818,0 -18.90058,-8.70176 -18.90058,-8.70176 l -8.79532,14.78363 c 0,0 10.94737,10.19883 29.00585,10.19883 15.06432,0 29.09941,-6.45614 29.09941,-24.88889 0,-10.105264 -9.45029,-17.40351 -18.05848,-21.052632 -8.79532,-3.742691 -16.09357,-6.83041 -16.09357,-11.134504 0,-4.210526 3.18129,-6.923976 9.1696,-6.923976 7.95321,0 15.62573,5.333333 15.62573,5.333333 l 7.11111,-14.035088 c 0,0 -9.91813,-7.298246 -23.95322,-7.298246 z"/>
		<path d="m 383.87718,99.029239 h 24.88889 V 130 h 17.59065 V 52.807016 H 408.76607 V 83.590642 H 383.87718 V 52.807016 H 366.28654 V 130 h 17.59064 z"/>
		<path d="m 439.09649,91.356724 c 0,22.549706 16.09357,40.046786 38.92398,40.046786 22.17544,0 38.83041,-17.49708 38.83041,-40.046786 0,-22.549708 -17.40351,-39.953217 -38.83041,-39.953217 -21.23977,0 -38.92398,17.403509 -38.92398,39.953217 z m 18.99416,0 c 0,-11.508772 6.36257,-23.017544 19.92982,-23.017544 13.66082,0 19.83626,11.508772 19.83626,23.017544 0,11.508776 -5.80117,23.017546 -19.83626,23.017546 -14.40936,0 -19.92982,-11.50877 -19.92982,-23.017546 z"/>
		<path d="M 529.61257,52.807016 V 130 h 17.59065 V 99.497075 L 570.78217,130 h 22.36257 l -26.5731,-31.906433 c 9.45029,-2.994152 15.81287,-10.760234 15.81287,-22.362574 0,-15.157895 -10.85381,-22.923977 -25.1696,-22.923977 z m 17.59065,34.245615 V 66.842104 h 2.05848 c 6.64327,0 14.59649,0.467836 14.59649,10.105263 0,9.637428 -7.95322,10.105264 -14.59649,10.105264 z"/>
		<path d="m 593.1608,68.245613 h 18.33919 V 130 h 17.59064 V 68.245613 h 18.33918 V 52.807016 H 593.1608 Z"/>
		<path d="M 733.981,52.807016 H 689.34942 V 130 h 17.59064 V 99.029239 h 24.98246 V 83.590642 H 706.94006 V 68.245613 H 733.981 Z"/>
		<path d="M 764.93714,52.807016 H 747.34649 V 130 h 17.59065 z"/>
		<path d="m 819.3728,114.09357 c -17.68421,0 -25.45029,-12.35088 -25.45029,-22.736846 0,-10.292397 7.76608,-22.643275 25.45029,-22.643275 8.98246,0 15.1579,4.77193 15.1579,4.77193 l 7.48538,-14.97076 c 0,0 -8.60819,-7.111112 -25.35673,-7.111112 -21.89473,0 -41.82456,17.964913 -41.82456,40.140352 0,22.081871 20.02339,39.859651 41.82456,39.859651 16.74854,0 25.35673,-7.11111 25.35673,-7.11111 l -7.48538,-14.97076 c 0,0 -6.17544,4.77193 -15.1579,4.77193 z"/>
		<path d="m 848.97224,68.245613 h 18.33918 V 130 h 17.59064 V 68.245613 h 18.33918 V 52.807016 h -54.269 z"/>
		<path d="M 932.16666,52.807016 H 914.57601 V 130 h 17.59065 z"/>
		<path d="m 944.98829,91.356724 c 0,22.549706 16.09357,40.046786 38.92398,40.046786 22.17543,0 38.83043,-17.49708 38.83043,-40.046786 0,-22.549708 -17.4035,-39.953217 -38.83043,-39.953217 -21.23977,0 -38.92398,17.403509 -38.92398,39.953217 z m 18.99416,0 c 0,-11.508772 6.36257,-23.017544 19.92982,-23.017544 13.66082,0 19.83623,11.508772 19.83623,23.017544 0,11.508776 -5.80114,23.017546 -19.83623,23.017546 -14.40936,0 -19.92982,-11.50877 -19.92982,-23.017546 z"/>
		<path d="m 1053.095,82.093566 h 0.1871 L 1083.9722,130 h 17.5906 V 52.807016 h -17.5906 v 47.906434 h -0.1871 L 1053.095,52.807016 h -17.5906 V 130 h 17.5906 z"/>
	</g>
	<g aria-label="ARTHUR MACHEN">
		<path d="M 381.79386,232.10526 H 369.58334 L 346.21492,290 h 14.17543 l 4.28071,-11.57895 h 22.03508 L 390.98684,290 h 14.17544 z m 0.42106,34.73685 H 369.16228 L 375.61842,250 h 0.14035 z"/>
		<path d="M 412.35198,232.10526 V 290 h 13.19298 V 267.12281 L 443.22917,290 h 16.77193 l -19.92982,-23.92982 c 7.08772,-2.24562 11.85965,-8.07018 11.85965,-16.77193 0,-11.36842 -8.14036,-17.19299 -18.8772,-17.19299 z m 13.19298,25.68421 v -15.15789 h 1.54386 c 4.98246,0 10.94737,0.35088 10.94737,7.57895 0,7.22807 -5.96491,7.57894 -10.94737,7.57894 z"/>
		<path d="m 461.26316,243.68421 h 13.75438 V 290 h 13.19299 v -46.31579 h 13.75438 v -11.57895 h -40.70175 z"/>
		<path d="m 524.90899,266.77193 h 18.66667 V 290 h 13.19298 v -57.89474 h -13.19298 v 23.08772 H 524.90899 V 232.10526 H 511.71601 V 290 h 13.19298 z"/>
		<path d="M 614.66118,232.10526 H 601.4682 v 33.47369 c 0,9.68421 -2.94737,12.49123 -9.40351,12.49123 -6.45614,0 -9.40351,-2.80702 -9.40351,-12.49123 V 232.10526 H 569.4682 v 37.33334 c 0,14.31579 7.85965,21.61403 22.59649,21.61403 14.73684,0 22.59649,-7.29824 22.59649,-21.61403 z"/>
		<path d="M 627.39035,232.10526 V 290 h 13.19299 V 267.12281 L 658.26755,290 h 16.77193 l -19.92983,-23.92982 c 7.08772,-2.24562 11.85965,-8.07018 11.85965,-16.77193 0,-11.36842 -8.14035,-17.19299 -18.87719,-17.19299 z m 13.19299,25.68421 v -15.15789 h 1.54386 c 4.98245,0 10.94736,0.35088 10.94736,7.57895 0,7.22807 -5.96491,7.57894 -10.94736,7.57894 z"/>
		<path d="m 754.74011,290 h 13.19299 l -5.19299,-57.89474 h -14.03508 l -12.84211,33.40351 -12.8421,-33.40351 H 708.98573 L 703.79275,290 h 13.19298 l 2.73684,-34.31579 h 0.35088 l 11.85965,33.96491 h 7.85965 l 11.85965,-33.96491 h 0.35087 z"/>
		<path d="M 807.62171,232.10526 H 795.41119 L 772.04277,290 h 14.17543 l 4.28071,-11.57895 h 22.03508 L 816.8147,290 h 14.17543 z m 0.42106,34.73685 H 794.99013 L 801.44627,250 h 0.14036 z"/>
		<path d="m 866.79384,278.07018 c -13.26316,0 -19.08772,-9.26316 -19.08772,-17.05264 0,-7.71929 5.82456,-16.98245 19.08772,-16.98245 6.73684,0 11.36842,3.57895 11.36842,3.57895 l 5.61403,-11.22807 c 0,0 -6.45614,-5.33334 -19.01754,-5.33334 -16.42105,0 -31.36842,13.47369 -31.36842,30.10527 0,16.5614 15.01754,29.89473 31.36842,29.89473 12.5614,0 19.01754,-5.33333 19.01754,-5.33333 l -5.61403,-11.22807 c 0,0 -4.63158,3.57895 -11.36842,3.57895 z"/>
		<path d="M 907.08553,266.77193 H 925.7522 V 290 h 13.19298 V 232.10526 H 925.7522 v 23.08772 H 907.08553 V 232.10526 H 893.89255 V 290 h 13.19298 z"/>
		<path d="M 985.46928,232.10526 H 952.34647 V 290 h 33.12281 v -11.57895 h -19.92983 v -11.64912 h 19.08772 v -11.57895 h -19.08772 v -11.50877 h 19.92983 z"/>
		<path d="m 1011.2467,254.07018 h 0.1404 L 1034.4046,290 h 13.193 v -57.89474 h -13.193 v 35.92983 h -0.1403 l -23.0176,-35.92983 H 998.05375 V 290 h 13.19295 z"/>
	</g>
</svg>

<?xml version="1.0" encoding="utf-8"?>
<svg xmlns="http://www.w3.org/2000/svg" xmlns:svg="http://www.w3.org/2000/svg" version="1.1" viewBox="0 0 1400 340">
	<title>The titlepage for the Standard Ebooks edition of Short Fiction, by Arthur Machen</title>
	<g>
		<path d="m 326.86549,51.403507 c -12.44444,0 -25.16959,9.169591 -25.16959,23.578948 0,8.046784 5.4269,15.251462 14.69006,19.836258 9.16959,4.584795 17.40351,7.111107 17.40351,12.725147 0,7.20468 -7.29825,7.57895 -11.13451,7.57895 -8.60818,0 -18.90058,-8.70176 -18.90058,-8.70176 l -8.79532,14.78363 c 0,0 10.94737,10.19883 29.00585,10.19883 15.06432,0 29.09941,-6.45614 29.09941,-24.88889 0,-10.105264 -9.45029,-17.40351 -18.05848,-21.052632 -8.79532,-3.742691 -16.09357,-6.83041 -16.09357,-11.134504 0,-4.210526 3.18129,-6.923976 9.1696,-6.923976 7.95321,0 15.62573,5.333333 15.62573,5.333333 l 7.11111,-14.035088 c 0,0 -9.91813,-7.298246 -23.95322,-7.298246 z"/>
		<path d="m 383.87718,99.029239 24.88889,0 0,30.970761 17.59065,0 0,-77.192984 -17.59065,0 0,30.783626 -24.88889,0 0,-30.783626 -17.59064,0 0,77.192984 17.59064,0 0,-30.970761 z"/>
		<path d="m 439.09649,91.356724 c 0,22.549706 16.09357,40.046786 38.92398,40.046786 22.17544,0 38.83041,-17.49708 38.83041,-40.046786 0,-22.549708 -17.40351,-39.953217 -38.83041,-39.953217 -21.23977,0 -38.92398,17.403509 -38.92398,39.953217 z m 18.99416,0 c 0,-11.508772 6.36257,-23.017544 19.92982,-23.017544 13.66082,0 19.83626,11.508772 19.83626,23.017544 0,11.508776 -5.80117,23.017546 -19.83626,23.017546 -14.40936,0 -19.92982,-11.50877 -19.92982,-23.017546 z"/>
		<path d="m 529.61257,52.807016 0,77.192984 17.59065,0 0,-30.502925 L 570.78217,130 l 22.36257,0 -26.5731,-31.906433 c 9.45029,-2.994152 15.81287,-10.760234 15.81287,-22.362574 0,-15.157895 -10.85381,-22.923977 -25.1696,-22.923977 l -27.60234,0 z m 17.59065,34.245615 0,-20.210527 2.05848,0 c 6.64327,0 14.59649,0.467836 14.59649,10.105263 0,9.637428 -7.95322,10.105264 -14.59649,10.105264 l -2.05848,0 z"/>
		<path d="m 593.1608,68.245613 18.33919,0 0,61.754387 17.59064,0 0,-61.754387 18.33918,0 0,-15.438597 -54.26901,0 0,15.438597 z"/>
		<path d="m 733.981,52.807016 -44.63158,0 0,77.192984 17.59064,0 0,-30.970761 24.98246,0 0,-15.438597 -24.98246,0 0,-15.345029 27.04094,0 0,-15.438597 z"/>
		<path d="m 764.93714,52.807016 -17.59065,0 0,77.192984 17.59065,0 0,-77.192984 z"/>
		<path d="m 819.3728,114.09357 c -17.68421,0 -25.45029,-12.35088 -25.45029,-22.736846 0,-10.292397 7.76608,-22.643275 25.45029,-22.643275 8.98246,0 15.1579,4.77193 15.1579,4.77193 l 7.48538,-14.97076 c 0,0 -8.60819,-7.111112 -25.35673,-7.111112 -21.89473,0 -41.82456,17.964913 -41.82456,40.140352 0,22.081871 20.02339,39.859651 41.82456,39.859651 16.74854,0 25.35673,-7.11111 25.35673,-7.11111 l -7.48538,-14.97076 c 0,0 -6.17544,4.77193 -15.1579,4.77193 z"/>
		<path d="m 848.97224,68.245613 18.33918,0 0,61.754387 17.59064,0 0,-61.754387 18.33918,0 0,-15.438597 -54.269,0 0,15.438597 z"/>
		<path d="m 932.16666,52.807016 -17.59065,0 0,77.192984 17.59065,0 0,-77.192984 z"/>
		<path d="m 944.98829,91.356724 c 0,22.549706 16.09357,40.046786 38.92398,40.046786 22.17543,0 38.83043,-17.49708 38.83043,-40.046786 0,-22.549708 -17.4035,-39.953217 -38.83043,-39.953217 -21.23977,0 -38.92398,17.403509 -38.92398,39.953217 z m 18.99416,0 c 0,-11.508772 6.36257,-23.017544 19.92982,-23.017544 13.66082,0 19.83623,11.508772 19.83623,23.017544 0,11.508776 -5.80114,23.017546 -19.83623,23.017546 -14.40936,0 -19.92982,-11.50877 -19.92982,-23.017546 z"/>
		<path d="m 1053.095,82.093566 0.1871,0 30.6901,47.906434 17.5906,0 0,-77.192984 -17.5906,0 0,47.906434 -0.1871,0 -30.6901,-47.906434 -17.5906,0 0,77.192984 17.5906,0 0,-47.906434 z"/>
	</g>
	<g>
		<path d="m 381.79386,232.10526 -12.21052,0 L 346.21492,290 l 14.17543,0 4.28071,-11.57895 22.03508,0 4.2807,11.57895 14.17544,0 -23.36842,-57.89474 z m 0.42106,34.73685 -13.05264,0 6.45614,-16.84211 0.14035,0 6.45615,16.84211 z"/>
		<path d="m 412.35198,232.10526 0,57.89474 13.19298,0 0,-22.87719 17.68421,22.87719 16.77193,0 -19.92982,-23.92982 c 7.08772,-2.24562 11.85965,-8.07018 11.85965,-16.77193 0,-11.36842 -8.14036,-17.19299 -18.8772,-17.19299 l -20.70175,0 z m 13.19298,25.68421 0,-15.15789 1.54386,0 c 4.98246,0 10.94737,0.35088 10.94737,7.57895 0,7.22807 -5.96491,7.57894 -10.94737,7.57894 l -1.54386,0 z"/>
		<path d="m 461.26316,243.68421 13.75438,0 0,46.31579 13.19299,0 0,-46.31579 13.75438,0 0,-11.57895 -40.70175,0 0,11.57895 z"/>
		<path d="m 524.90899,266.77193 18.66667,0 0,23.22807 13.19298,0 0,-57.89474 -13.19298,0 0,23.08772 -18.66667,0 0,-23.08772 -13.19298,0 0,57.89474 13.19298,0 0,-23.22807 z"/>
		<path d="m 614.66118,232.10526 -13.19298,0 0,33.47369 c 0,9.68421 -2.94737,12.49123 -9.40351,12.49123 -6.45614,0 -9.40351,-2.80702 -9.40351,-12.49123 l 0,-33.47369 -13.19298,0 0,37.33334 c 0,14.31579 7.85965,21.61403 22.59649,21.61403 14.73684,0 22.59649,-7.29824 22.59649,-21.61403 l 0,-37.33334 z"/>
		<path d="m 627.39035,232.10526 0,57.89474 13.19299,0 0,-22.87719 17.68421,22.87719 16.77193,0 -19.92983,-23.92982 c 7.08772,-2.24562 11.85965,-8.07018 11.85965,-16.77193 0,-11.36842 -8.14035,-17.19299 -18.87719,-17.19299 l -20.70176,0 z m 13.19299,25.68421 0,-15.15789 1.54386,0 c 4.98245,0 10.94736,0.35088 10.94736,7.57895 0,7.22807 -5.96491,7.57894 -10.94736,7.57894 l -1.54386,0 z"/>
		<path d="m 754.74011,290 13.19299,0 -5.19299,-57.89474 -14.03508,0 -12.84211,33.40351 -12.8421,-33.40351 -14.03509,0 -5.19298,57.89474 13.19298,0 2.73684,-34.31579 0.35088,0 11.85965,33.96491 7.85965,0 11.85965,-33.96491 0.35087,0 L 754.74011,290 Z"/>
		<path d="m 807.62171,232.10526 -12.21052,0 L 772.04277,290 l 14.17543,0 4.28071,-11.57895 22.03508,0 4.28071,11.57895 14.17543,0 -23.36842,-57.89474 z m 0.42106,34.73685 -13.05264,0 6.45614,-16.84211 0.14036,0 6.45614,16.84211 z"/>
		<path d="m 866.79384,278.07018 c -13.26316,0 -19.08772,-9.26316 -19.08772,-17.05264 0,-7.71929 5.82456,-16.98245 19.08772,-16.98245 6.73684,0 11.36842,3.57895 11.36842,3.57895 l 5.61403,-11.22807 c 0,0 -6.45614,-5.33334 -19.01754,-5.33334 -16.42105,0 -31.36842,13.47369 -31.36842,30.10527 0,16.5614 15.01754,29.89473 31.36842,29.89473 12.5614,0 19.01754,-5.33333 19.01754,-5.33333 l -5.61403,-11.22807 c 0,0 -4.63158,3.57895 -11.36842,3.57895 z"/>
		<path d="m 907.08553,266.77193 18.66667,0 0,23.22807 13.19298,0 0,-57.89474 -13.19298,0 0,23.08772 -18.66667,0 0,-23.08772 -13.19298,0 0,57.89474 13.19298,0 0,-23.22807 z"/>
		<path d="m 985.46928,232.10526 -33.12281,0 0,57.89474 33.12281,0 0,-11.57895 -19.92983,0 0,-11.64912 19.08772,0 0,-11.57895 -19.08772,0 0,-11.50877 19.92983,0 0,-11.57895 z"/>
		<path d="m 1011.2467,254.07018 0.1404,0 23.0175,35.92982 13.193,0 0,-57.89474 -13.193,0 0,35.92983 -0.1403,0 -23.0176,-35.92983 -13.19295,0 0,57.89474 13.19295,0 0,-35.92982 z"/>
	</g>
</svg>
